packages/icons/src/components/Icon/assets/default-outline/delete.svg

<svg width="20" height="20" viewBox="0 0 20 20" fill="none" xmlns="http://www.w3.org/2000/svg">
<path fill-rule="evenodd" clip-rule="evenodd" d="M9.99983 3.33333C9.58902 3.33333 9.17976 3.3399 8.77216 3.35294C8.27013 3.369 7.85834 3.78524 7.84626 4.31845C8.55893 4.27728 9.27698 4.25641 9.99983 4.25641C10.7227 4.25641 11.4407 4.27728 12.1534 4.31845C12.1413 3.78524 11.7295 3.369 11.2275 3.35294C10.8199 3.3399 10.4106 3.33333 9.99983 3.33333ZM13.487 4.41966V4.34257C13.487 3.11321 12.5337 2.06071 11.2701 2.02029C10.8483 2.0068 10.4249 2 9.99983 2C9.5748 2 9.15133 2.0068 8.72953 2.02029C7.46593 2.06071 6.51265 3.11321 6.51265 4.34257V4.41966C5.82415 4.48445 5.14112 4.56822 4.4641 4.67047C4.20213 4.71003 3.94106 4.75236 3.68092 4.79742C3.31813 4.86026 3.07498 5.2053 3.13782 5.56809C3.20066 5.93088 3.54571 6.17403 3.90849 6.11119C3.92383 6.10853 3.93918 6.10588 3.95452 6.10325L4.70212 15.8219C4.79666 17.051 5.82149 18 7.05414 18H12.9455C14.1782 18 15.203 17.051 15.2976 15.8219L16.0451 6.10325C16.0605 6.10588 16.0758 6.10853 16.0912 6.11119C16.454 6.17403 16.799 5.93088 16.8618 5.56809C16.9247 5.2053 16.6815 4.86026 16.3187 4.79742C16.0586 4.75236 15.7975 4.71003 15.5356 4.67047C14.8585 4.56822 14.1755 4.48445 13.487 4.41966ZM14.7234 5.90174C14.0773 5.8157 13.4257 5.74706 12.769 5.69631C11.8553 5.62571 10.9318 5.58974 9.99983 5.58974C9.06782 5.58974 8.14434 5.62571 7.23068 5.69631C6.574 5.74706 5.92238 5.8157 5.2763 5.90174L6.03152 15.7197C6.07263 16.254 6.51821 16.6667 7.05414 16.6667H12.9455C13.4815 16.6667 13.927 16.254 13.9681 15.7197L14.7234 5.90174ZM7.91307 7.07742C8.28099 7.06326 8.59071 7.35005 8.60486 7.71797L8.86522 14.4872C8.87937 14.8551 8.59258 15.1648 8.22467 15.179C7.85675 15.1931 7.54702 14.9064 7.53287 14.5384L7.27252 7.76921C7.25837 7.40129 7.54515 7.09157 7.91307 7.07742ZM12.0866 7.07742C12.4545 7.09157 12.7413 7.40129 12.7272 7.76921L12.4668 14.5384C12.4526 14.9064 12.1429 15.1931 11.775 15.179C11.4071 15.1648 11.1203 14.8551 11.1344 14.4872L11.3948 7.71797C11.409 7.35005 11.7187 7.06326 12.0866 7.07742Z" fill="#727683"/>
</svg>

<svg xmlns="http://www.w3.org/2000/svg" width="20" height="20" fill="none" viewBox="0 0 20 20">
    <path d="M10 3.333q-.616 0-1.228.02a.97.97 0 0 0-.926.965 37 37 0 0 1 4.307 0 .97.97 0 0 0-.926-.965q-.61-.02-1.227-.02m3.487 1.087v-.077c0-1.23-.953-2.282-2.217-2.323a40 40 0 0 0-2.54 0c-1.264.04-2.217 1.093-2.217 2.323v.077a37 37 0 0 0-2.832.377.667.667 0 1 0 .274 1.306l.747 9.719A2.36 2.36 0 0 0 7.054 18h5.891a2.36 2.36 0 0 0 2.353-2.178l.747-9.719.046.008a.667.667 0 1 0 .228-1.314 37 37 0 0 0-2.832-.377m1.236 1.482A36 36 0 0 0 10 5.59a36 36 0 0 0-4.724.312l.756 9.818c.04.534.486.947 1.022.947h5.891c.537 0 .982-.413 1.023-.947zm-6.81 1.175a.667.667 0 0 1 .692.641l.26 6.77a.667.667 0 0 1-1.332.05l-.26-6.769a.667.667 0 0 1 .64-.692m4.174 0a.667.667 0 0 1 .64.692l-.26 6.77a.667.667 0 0 1-1.333-.052l.26-6.769a.667.667 0 0 1 .693-.64" clip-rule="evenodd"/>
</svg>
